Optical/Danske Bank.svg

<?xml version="1.0" encoding="UTF-8"?>
<svg width="159px" height="48px" viewBox="0 0 159 48" version="1.1" xmlns="http://www.w3.org/2000/svg" xmlns:xlink="http://www.w3.org/1999/xlink">
    <!-- Generator: Sketch 52.3 (67297) - http://www.bohemiancoding.com/sketch -->
    <title>Optical/Danske Bank</title>
    <desc>Created with Sketch.</desc>
    <g id="Optical/Danske-Bank" stroke="none" stroke-width="1" fill="none" fill-rule="evenodd">
        <path d="M159,12 L159,36 L102.075496,36 L102.075496,12 L159,12 Z M158.381099,12.6046791 L102.680004,12.6046791 L102.680004,35.3809238 L158.381099,35.3809238 L158.381099,12.6046791 Z M116.684439,21.905219 C116.684439,20.4655069 115.734498,20.3071386 113.992939,20.3071386 L109.444736,20.3071386 L109.444736,23.935213 L113.777044,23.935213 C115.734498,23.935213 116.684439,23.5896821 116.684439,21.905219 Z M118.944148,27.2321536 C118.944148,29.3197361 117.548022,30.4571086 115.043632,30.4571086 L107.602426,30.4571086 L107.602426,19.0257948 L114.755771,19.0257948 C117.533629,19.0257948 118.512356,20.0479904 118.512356,22.0635873 C118.512356,23.2873425 117.706346,24.064787 116.209469,24.4535093 L116.209469,24.4823035 C118.138137,24.7846431 118.944148,25.8212358 118.944148,27.2321536 Z M117.101838,27.3617277 C117.101838,25.9076185 116.511723,25.2309538 114.395945,25.2309538 L109.444736,25.2309538 L109.444736,29.1469706 L114.165656,29.1469706 C115.950394,29.1469706 117.101838,28.9886023 117.101838,27.3617277 Z M128.285236,27.6352729 L128.285236,26.6706659 L125.464198,26.6706659 C124.154431,26.6706659 123.737033,26.6994601 123.420386,26.8578284 C123.074952,27.0161968 122.902236,27.404919 122.902236,28.0959808 C122.902236,28.6430714 123.002987,28.9022196 123.262062,29.0605879 C123.636281,29.3053389 124.269575,29.4061188 125.334661,29.4061188 C126.399747,29.4061188 127.033041,29.3485303 127.479225,29.1757648 C128.242057,28.9022196 128.285236,28.2975405 128.285236,27.6352729 Z M130.026795,30.4571086 L128.573097,30.4571086 L128.414773,29.794841 C127.795872,30.3275345 126.788359,30.5722855 125.219517,30.5722855 C122.225763,30.5722855 121.059926,29.9388122 121.059926,28.0383923 C121.059926,27.3905219 121.203856,26.8866227 121.491717,26.4979004 C122.153797,25.5908818 123.362813,25.5620876 124.413506,25.5620876 L128.285236,25.5620876 L128.285236,24.7846431 C128.285236,24.4535093 128.314022,24.0215957 127.954196,23.820036 C127.565583,23.6040792 126.644428,23.5608878 125.320268,23.5608878 C124.168824,23.5608878 123.780212,23.6472705 123.549923,23.8632274 C123.362813,24.064787 123.334027,24.5542891 123.290848,24.7558488 L121.606862,24.7558488 C121.592469,24.3959208 121.563682,24.1223755 121.563682,23.9208158 C121.563682,23.6040792 121.621255,23.344931 121.88033,23.1289742 C122.643161,22.4811038 124.71576,22.3947211 125.478591,22.3947211 C126.486105,22.3947211 128.529918,22.4091182 129.364714,23.0569886 C129.724541,23.3305339 129.868471,23.6472705 129.954829,24.0935813 C130.026795,24.5254949 130.026795,25.1157768 130.026795,25.965207 L130.026795,30.4571086 Z M140.01557,30.4571086 L140.01557,26.0803839 C140.01557,24.5686863 139.943605,24.2519496 139.583778,23.9784043 C139.238345,23.7192561 138.547479,23.5608878 137.496786,23.5608878 C136.575631,23.5608878 135.62569,23.6760648 134.733321,23.9208158 L134.733321,30.4571086 L133.020549,30.4571086 L133.020549,22.4523095 L134.560605,22.4523095 L134.690142,23.0281944 C135.021182,22.8410318 135.280257,22.6970606 135.654476,22.5962807 C136.215805,22.4235153 136.935458,22.3371326 137.899792,22.3371326 C138.993663,22.3371326 139.842853,22.509898 140.49054,22.7978404 C141.123835,23.0713857 141.469268,23.5896821 141.613198,24.1943611 C141.699556,24.6118776 141.728343,24.9718056 141.728343,25.8788242 L141.728343,30.4571086 L140.01557,30.4571086 Z M151.184575,30.4571086 L147.05377,26.6706659 L146.434869,26.6706659 L146.434869,30.4571086 L144.722096,30.4571086 L144.722096,19.0257948 L146.434869,19.0257948 L146.434869,25.5332933 L147.05377,25.5332933 L150.479316,22.4523095 L152.479949,22.4523095 L148.493075,25.9796041 L153.458677,30.4571086 L151.184575,30.4571086 Z M2.04783266e-12,36 L2.0448935e-12,12 L99.6142844,12 L99.6142844,36 L2.04783266e-12,36 Z M34.3993844,25.6196761 C34.3993844,27.9808038 33.1327962,29.1469706 30.2973658,29.1469706 L25.835521,29.1469706 L25.835521,20.3071386 L30.1534353,20.3071386 C33.5789807,20.3071386 34.3993844,21.9772046 34.3993844,23.8056389 L34.3993844,25.6196761 Z M36.2273015,25.5476905 L36.2273015,24.0359928 C36.2273015,19.2129574 32.4275369,19.0257948 29.8799674,19.0257948 L23.9932108,19.0257948 L23.9932108,30.4571086 L30.3837241,30.4571086 C35.4068978,30.4571086 36.2273015,27.7360528 36.2273015,25.5476905 Z M46.1872907,27.6352729 C46.1872907,28.2975405 46.1297185,28.9022196 45.3668869,29.1757648 C44.9207025,29.3485303 44.2874083,29.4061188 43.2223228,29.4061188 C42.1572373,29.4061188 41.5239432,29.3053389 41.1497239,29.0605879 C40.890649,28.9022196 40.7898977,28.6430714 40.7898977,28.0959808 C40.7898977,27.404919 40.9626143,27.0161968 41.2936544,26.8578284 C41.6246945,26.6994601 42.0420929,26.6706659 43.3374672,26.6706659 L46.1872907,26.6706659 L46.1872907,27.6352729 Z M47.9144564,30.4571086 L47.9144564,25.965207 C47.9144564,25.1157768 47.9144564,24.5254949 47.8424912,24.0935813 C47.7561329,23.6472705 47.6122024,23.3305339 47.2523762,23.0569886 C46.4175794,22.4091182 44.3737666,22.3947211 43.3662533,22.3947211 C42.6034217,22.3947211 40.5308228,22.4811038 39.7679913,23.1289742 C39.5089164,23.344931 39.4513443,23.6040792 39.4513443,23.9208158 C39.4513443,24.1223755 39.4801304,24.3959208 39.4945234,24.7558488 L41.17851,24.7558488 C41.2072961,24.5542891 41.2504752,24.064787 41.4375849,23.8632274 C41.6678736,23.6472705 42.0564859,23.5608878 43.2079298,23.5608878 C44.5320902,23.5608878 45.4532452,23.6040792 45.8418575,23.820036 C46.2016837,24.0215957 46.1872907,24.4535093 46.1872907,24.7846431 L46.1872907,25.5620876 L42.3011677,25.5620876 C41.2504752,25.5620876 40.0414592,25.5908818 39.379379,26.4979004 C39.077125,26.8866227 38.9475876,27.3905219 38.9475876,28.0383923 C38.9475876,29.9388122 40.1134245,30.5722855 43.1071784,30.5722855 C44.6616276,30.5722855 45.683534,30.3275345 46.3024351,29.794841 L46.4607586,30.4571086 L47.9144564,30.4571086 Z M58.3350231,30.4571086 L60.0477958,30.4571086 L60.0477958,25.8788242 C60.0477958,24.9718056 60.0046166,24.6118776 59.9182584,24.1943611 C59.7887209,23.5896821 59.4432878,23.0713857 58.8099937,22.7978404 C58.1623065,22.509898 57.3131167,22.3371326 56.219245,22.3371326 C55.2549108,22.3371326 54.5352584,22.4235153 53.9595365,22.5962807 C53.5997103,22.6970606 53.3406355,22.8410318 52.9952023,23.0281944 L52.8800579,22.4523095 L51.3400018,22.4523095 L51.3400018,30.4571086 L53.0527745,30.4571086 L53.0527745,23.9208158 C53.9451435,23.6760648 54.8950846,23.5608878 55.8162397,23.5608878 C56.8669322,23.5608878 57.5577985,23.7192561 57.9032316,23.9784043 C58.2630578,24.2519496 58.3350231,24.5686863 58.3350231,26.0803839 L58.3350231,30.4571086 Z M71.0440844,29.9676065 C71.7493437,29.6076785 72.0515977,29.0173965 72.0515977,28.0815837 C72.0515977,26.9154169 71.7061646,26.3395321 70.8281886,26.0371926 C70.338825,25.8644271 69.7774962,25.7924415 68.9139133,25.7780444 C68.1079026,25.7636473 65.7474427,25.7924415 65.3012583,25.5188962 C65.1141486,25.3893221 64.9702182,25.1013797 64.9702182,24.7126575 C64.9702182,24.1367726 65.1717208,23.8488302 65.6179053,23.6904619 C66.0928759,23.5176965 66.6829909,23.4745051 67.7192903,23.4745051 C68.7555898,23.4745051 69.4896352,23.5608878 69.734317,23.7480504 C69.8782475,23.8488302 69.9070336,23.935213 69.9933919,24.3671266 L70.0653571,24.7270546 L71.7349507,24.7270546 C71.7637368,24.4535093 71.7637368,24.2807439 71.7637368,24.1079784 C71.7637368,23.4745051 71.6341993,23.1145771 71.231194,22.8842232 C70.8713678,22.6826635 70.3676111,22.5674865 69.7055309,22.4811038 C69.129809,22.4091182 68.1798678,22.3515297 67.4026433,22.3515297 C64.3513171,22.3515297 63.2430524,22.985003 63.2430524,24.7990402 C63.2430524,26.80024 65.0565764,26.8722256 66.7693491,26.9586083 C67.1579614,26.9730054 67.4890015,27.0017996 67.7768625,27.0017996 C68.3813705,27.0161968 68.7555898,27.0161968 68.8707341,27.0305939 C69.0866299,27.044991 69.2881325,27.044991 69.4896352,27.0881824 C70.1517154,27.1889622 70.2812528,27.4481104 70.2812528,28.0815837 C70.2812528,28.6286743 70.1085363,28.9166167 69.7487101,29.074985 C69.2449534,29.3053389 68.4821218,29.4205159 67.3882502,29.4205159 C66.5102743,29.4205159 65.819408,29.3629274 65.3876165,29.2333533 C64.9414321,29.0893821 64.9702182,28.8878224 64.912646,28.5134973 C64.8982529,28.4271146 64.8982529,28.2975405 64.8406807,27.8944211 L63.1854802,27.8944211 C63.1423011,28.3263347 63.113515,28.6430714 63.1423011,29.0029994 C63.1854802,29.6940612 63.5884856,30.0683863 64.3944962,30.2555489 C65.1429347,30.4571086 66.1072689,30.5434913 67.2731058,30.5434913 C68.9570924,30.5434913 70.2524667,30.3707259 71.0440844,29.9676065 Z M81.6085815,30.4571086 L83.8970761,30.4571086 L78.9314746,25.9796041 L82.9183489,22.4523095 L80.9033222,22.4523095 L77.4777768,25.5332933 L76.8732688,25.5332933 L76.8732688,19.0257948 L75.146103,19.0257948 L75.146103,30.4571086 L76.8732688,30.4571086 L76.8732688,26.6706659 L77.4777768,26.6706659 L81.6085815,30.4571086 Z M92.4177605,25.6772645 L86.9052231,25.6772645 C86.9627953,24.6694661 87.178691,24.2231554 87.5673033,23.935213 C87.9703087,23.6472705 88.7043541,23.5032993 89.7838327,23.5032993 C91.2807097,23.5032993 91.985969,23.8344331 92.2450439,24.5254949 C92.3457952,24.8134373 92.4177605,25.0869826 92.4177605,25.6772645 Z M94.0009957,27.9520096 L92.3026161,27.9520096 C92.2450439,28.1967606 92.2162578,28.8158368 91.985969,29.0461908 C91.7268942,29.3053389 91.2087445,29.4205159 89.8270119,29.4205159 C88.4596723,29.4205159 87.7112338,29.2333533 87.3226215,28.8446311 C87.0347606,28.5566887 86.862044,27.9520096 86.862044,27.0161968 L86.862044,26.80024 L94.0441749,26.80024 C94.0585679,26.4115177 94.087354,26.3107379 94.087354,25.9940012 C94.087354,24.6694661 93.9002444,23.935213 93.3245225,23.3737253 C92.6768353,22.6970606 91.4246402,22.3659268 89.6974744,22.3659268 C87.4953381,22.3659268 86.1423916,22.869826 85.5810627,23.9784043 C85.2500226,24.6118776 85.062913,25.5044991 85.062913,26.6130774 C85.062913,28.355129 85.5234905,29.4493101 86.5453969,29.9964007 C87.178691,30.3419316 88.2725627,30.5434913 89.6686883,30.5578884 C90.8345252,30.5578884 91.7700733,30.5002999 92.7919797,30.1979604 C93.7851,29.8812238 94.0297818,29.3197361 94.0297818,28.8446311 C94.0297818,28.7294541 94.0297818,28.3407319 94.0009957,27.9520096 Z" id="Cropped/Danske-Bank" fill="#03426A" fill-rule="nonzero"></path>
    </g>
</svg>

<svg width="159" height="48" xmlns="http://www.w3.org/2000/svg"><path d="M159 12v24h-56.925V12H159zm-.619.605H102.68V35.38h55.701V12.605zm-41.697 9.3c0-1.44-.95-1.598-2.691-1.598h-4.548v3.628h4.332c1.957 0 2.907-.345 2.907-2.03zm2.26 5.327c0 2.088-1.396 3.225-3.9 3.225h-7.442V19.026h7.154c2.778 0 3.756 1.022 3.756 3.038 0 1.223-.806 2-2.303 2.39v.028c1.93.303 2.735 1.34 2.735 2.75zm-1.842.13c0-1.454-.59-2.131-2.706-2.131h-4.951v3.916h4.72c1.785 0 2.937-.158 2.937-1.785zm11.183.273v-.964h-2.82c-1.31 0-1.728.028-2.045.187-.345.158-.518.547-.518 1.238 0 .547.101.806.36.965.374.244 1.008.345 2.073.345s1.698-.057 2.144-.23c.763-.274.806-.878.806-1.54zm1.742 2.822h-1.454l-.158-.662c-.62.533-1.627.777-3.195.777-2.994 0-4.16-.633-4.16-2.534 0-.647.144-1.151.432-1.54.662-.907 1.87-.936 2.922-.936h3.871v-.777c0-.331.029-.763-.33-.965-.39-.216-1.31-.26-2.635-.26-1.151 0-1.54.087-1.77.303-.187.202-.216.691-.26.893h-1.683c-.015-.36-.043-.634-.043-.835 0-.317.057-.576.316-.792.763-.648 2.836-.734 3.599-.734 1.007 0 3.05.014 3.886.662.36.274.503.59.59 1.037.072.431.072 1.022.072 1.871v4.492zm9.989 0V26.08c0-1.511-.072-1.828-.432-2.102-.346-.259-1.037-.417-2.087-.417-.921 0-1.871.115-2.764.36v6.536h-1.712v-8.005h1.54l.13.576c.33-.187.59-.33.963-.432.562-.172 1.281-.259 2.246-.259 1.094 0 1.943.173 2.59.46.634.274.98.793 1.123 1.397.087.418.115.778.115 1.685v4.578h-1.712zm11.169 0l-4.131-3.786h-.62v3.786h-1.712V19.026h1.713v6.507h.619l3.425-3.08h2l-3.986 3.527 4.966 4.477h-2.274zM0 36V12h99.614v24H0zm34.4-10.38c0 2.36-1.267 3.527-4.103 3.527h-4.461v-8.84h4.317c3.426 0 4.246 1.67 4.246 3.499v1.814zm1.827-.072v-1.512c0-4.823-3.8-5.01-6.347-5.01h-5.887v11.431h6.39c5.024 0 5.844-2.72 5.844-4.91zm9.96 2.087c0 .663-.057 1.267-.82 1.54-.446.174-1.08.231-2.145.231s-1.698-.1-2.072-.345c-.26-.159-.36-.418-.36-.965 0-.691.173-1.08.504-1.238.33-.159.748-.187 2.043-.187h2.85v.964zm1.727 2.822v-4.492c0-.85 0-1.44-.072-1.871-.086-.447-.23-.763-.59-1.037-.834-.648-2.878-.662-3.886-.662-.763 0-2.835.086-3.598.734-.26.216-.317.475-.317.792 0 .201.03.475.044.835h1.684c.028-.202.071-.691.259-.893.23-.216.618-.302 1.77-.302 1.324 0 2.245.043 2.634.259.36.202.345.634.345.965v.777h-3.886c-1.05 0-2.26.029-2.922.936-.302.389-.431.893-.431 1.54 0 1.9 1.165 2.534 4.16 2.534 1.554 0 2.576-.244 3.194-.777l.159.662h1.453zm10.421 0h1.713V25.88c0-.907-.043-1.267-.13-1.685-.13-.604-.475-1.123-1.108-1.396-.648-.288-1.497-.46-2.59-.46-.965 0-1.685.086-2.26.258-.36.101-.62.245-.965.432l-.115-.576h-1.54v8.005h1.713v-6.536c.892-.245 1.842-.36 2.763-.36 1.05 0 1.742.158 2.087.417.36.274.432.59.432 2.102v4.377zm12.71-.49c.704-.36 1.007-.95 1.007-1.885 0-1.167-.346-1.742-1.224-2.045-.49-.173-1.05-.245-1.914-.259-.806-.014-3.167.014-3.613-.26-.187-.129-.33-.417-.33-.805 0-.576.2-.864.647-1.023.475-.172 1.065-.215 2.101-.215 1.037 0 1.77.086 2.015.273.144.1.173.187.26.62l.071.36h1.67c.029-.274.029-.447.029-.62 0-.633-.13-.993-.533-1.224-.36-.201-.863-.317-1.525-.403a21.245 21.245 0 0 0-2.303-.13c-3.052 0-4.16.634-4.16 2.448 0 2.001 1.814 2.073 3.526 2.16.389.014.72.043 1.008.043.604.014.979.014 1.094.029.216.014.417.014.619.057.662.101.791.36.791.994 0 .547-.172.835-.532.993-.504.23-1.267.346-2.36.346-.879 0-1.57-.058-2.001-.188-.447-.144-.418-.345-.475-.72-.015-.086-.015-.215-.072-.619h-1.656c-.043.432-.071.75-.043 1.109.043.691.446 1.065 1.252 1.253.749.201 1.713.287 2.88.287 1.683 0 2.978-.172 3.77-.575zm10.564.49h2.288l-4.966-4.477 3.987-3.528h-2.015l-3.425 3.081h-.605v-6.507h-1.727v11.431h1.727v-3.786h.605l4.13 3.786zm10.809-4.78h-5.513c.058-1.008.274-1.454.662-1.742.403-.288 1.137-.432 2.217-.432 1.497 0 2.202.331 2.461 1.022.1.288.173.562.173 1.152zM94 27.952h-1.698c-.058.245-.087.864-.317 1.094-.26.26-.777.375-2.159.375-1.367 0-2.116-.188-2.504-.576-.288-.288-.461-.893-.461-1.829V26.8h7.182c.015-.388.043-.49.043-.806 0-1.325-.187-2.059-.762-2.62-.648-.677-1.9-1.008-3.628-1.008-2.202 0-3.555.504-4.116 1.612-.331.634-.518 1.526-.518 2.635 0 1.742.46 2.836 1.482 3.383.634.346 1.728.547 3.124.562 1.166 0 2.101-.058 3.123-.36.993-.317 1.238-.878 1.238-1.353 0-.116 0-.504-.029-.893z" fill="#03426A"/></svg>
